X: 36354
T: Sean McCusker's Farewell
R: jig
M: 6/8
K: Dminor
A,DF DCD|FGA GAc|dcA BAG|AFD CA,C|
A,DF DCD|FGA GAc|dcA GFG|AFD D3:|
dcd ged|cdf gfg|aba g2 a|gfd g2 a|
bag afd|cdf gfg|aba gfg|1 afd d3:|2 afd def||
ged cAG|FDC FGA|BAG FDF|GEC B,DF|
Adf ged|cAG FGA|dcA GFG|AFD D3:|

